communes/748.svg

<?xml version="1.0" encoding="UTF-8" standalone="no"?>
<svg
   xmlns:dc="http://purl.org/dc/elements/1.1/"
   xmlns:cc="http://web.resource.org/cc/"
   xmlns:rdf="http://www.w3.org/1999/02/22-rdf-syntax-ns#"
   xmlns:svg="http://www.w3.org/2000/svg"
   xmlns="http://www.w3.org/2000/svg"
   xmlns:xlink="http://www.w3.org/1999/xlink"
   xmlns:sodipodi="http://sodipodi.sourceforge.net/DTD/sodipodi-0.dtd"
   xmlns:inkscape="http://www.inkscape.org/namespaces/inkscape"
   height="763"
   width="603"
   version="1.0"
   id="svg20"
   sodipodi:version="0.32"
   inkscape:version="0.44.1"
   sodipodi:docname="Schwadernau-coat of arms.svg"
   sodipodi:docbase="F:\Mis Documentos\Mis imágenes\Encyclopédie\Escudos de Suiza">
  <metadata
     id="metadata31">
    <rdf:RDF>
      <cc:Work
         rdf:about="">
        <dc:format>image/svg+xml</dc:format>
        <dc:type
           rdf:resource="http://purl.org/dc/dcmitype/StillImage" />
        <dc:date>07-AUG-2006</dc:date>
        <dc:creator>
          <cc:Agent>
            <dc:title>Jérôme BLUM (wagner51)</dc:title>
          </cc:Agent>
        </dc:creator>
        <cc:license
           rdf:resource="http://creativecommons.org/licenses/GPL/2.0/" />
        <dc:coverage />
        <dc:description>Gabarit pour le Projet:Blasons de WIkipédia</dc:description>
        <dc:subject>
          <rdf:Bag>
            <rdf:li>blason suisse modèle gabarit projet blasons</rdf:li>
          </rdf:Bag>
        </dc:subject>
        <dc:language>fr</dc:language>
        <dc:title>Gabrit d'un blason suisse</dc:title>
      </cc:Work>
      <cc:License
         rdf:about="http://creativecommons.org/licenses/GPL/2.0/">
        <cc:permits
           rdf:resource="http://web.resource.org/cc/Reproduction" />
        <cc:permits
           rdf:resource="http://web.resource.org/cc/Distribution" />
        <cc:requires
           rdf:resource="http://web.resource.org/cc/Notice" />
        <cc:permits
           rdf:resource="http://web.resource.org/cc/DerivativeWorks" />
        <cc:requires
           rdf:resource="http://web.resource.org/cc/ShareAlike" />
        <cc:requires
           rdf:resource="http://web.resource.org/cc/SourceCode" />
      </cc:License>
    </rdf:RDF>
  </metadata>
  <defs
     id="defs29">
    <linearGradient
       id="linearGradient2893">
      <stop
         style="stop-color:#ffffff;stop-opacity:0.3137255;"
         offset="0"
         id="stop2895" />
      <stop
         id="stop2897"
         offset="0.19"
         style="stop-color:#ffffff;stop-opacity:0.25098041;" />
      <stop
         style="stop-color:#6b6b6b;stop-opacity:0.1254902;"
         offset="0.60000002"
         id="stop2901" />
      <stop
         style="stop-color:#000000;stop-opacity:0.1254902;"
         offset="1"
         id="stop2899" />
    </linearGradient>
    <linearGradient
       id="linearGradient2955">
      <stop
         style="stop-color:white;stop-opacity:0;"
         offset="0"
         id="stop2965" />
      <stop
         style="stop-color:black;stop-opacity:0.64583331;"
         offset="1"
         id="stop2959" />
    </linearGradient>
    <radialGradient
       inkscape:collect="always"
       xlink:href="#linearGradient2893"
       id="radialGradient3236"
       gradientUnits="userSpaceOnUse"
       gradientTransform="matrix(1.215027,1.531577e-24,1.464684e-23,1.266667,-839.1924,-490.4894)"
       cx="858.04236"
       cy="579.93323"
       fx="858.04236"
       fy="579.93323"
       r="300" />
  </defs>
  <sodipodi:namedview
     inkscape:window-height="682"
     inkscape:window-width="1024"
     inkscape:pageshadow="2"
     inkscape:pageopacity="0.0"
     guidetolerance="10.0"
     gridtolerance="10.0"
     objecttolerance="10.0"
     borderopacity="1.0"
     bordercolor="#666666"
     pagecolor="#ffffff"
     id="base"
     inkscape:zoom="0.38079815"
     inkscape:cx="739.15987"
     inkscape:cy="432.24801"
     inkscape:window-x="-4"
     inkscape:window-y="-4"
     inkscape:current-layer="layer2"
     showgrid="true"
     showguides="true"
     inkscape:guide-bbox="true" />
  <desc
     id="desc22">Coat of Arms of Canton of Freiburg (Fribourg)</desc>
  <g
     inkscape:groupmode="layer"
     id="layer1"
     inkscape:label="Fond écu"
     sodipodi:insensitive="true">
    <path
       id="path1899"
       d="M 1.5,1.49998 L 1.5,460.3679 C 1.5,626.6785 135.81456,761.5 301.49999,761.5 C 467.18543,761.5 601.5,626.6785 601.5,460.3679 L 601.5,1.49998 L 1.5,1.49998 z "
       style="fill:#e20909;fill-opacity:1" />
  </g>
  <g
     inkscape:groupmode="layer"
     id="layer2"
     inkscape:label="Meubles"
     sodipodi:insensitive="true">
    <g
       id="g19876"
       transform="matrix(4.220257,0,0,4.220257,-2638.957,-2414.869)">
      <path
         style="fill:white;fill-opacity:1;fill-rule:evenodd;stroke:black;stroke-width:1px;stroke-linecap:butt;stroke-linejoin:miter;stroke-opacity:1"
         d="M 687.05625,692.52122 C 684.30307,696.5899 682.16339,701.5833 683.54711,705.66718 C 688.70897,720.90185 677.83006,721.76734 671.55232,716.12512 C 671.55232,716.12512 660.47875,706.63935 655.87485,702.98244 C 648.28733,696.95561 651.10577,688.88263 661.88675,691.17691 C 666.01766,692.056 672.09541,688.90122 676.24029,683.58336 L 738.25455,614.09012 L 754.2945,596.86048 L 738.25455,614.09012 C 738.92823,608.1602 740.57517,602.84071 739.84613,596.7559 C 747.95528,596.68051 756.85058,594.09515 764.60916,588.18242 C 761.31496,596.64636 757.88981,604.30616 761.15401,614.55875 C 754.7778,613.86589 748.07318,616.17681 744.49912,618.09145 L 756.57354,599.12562 L 744.49912,618.09145 L 687.05625,692.52122 z "
         id="path17209"
         sodipodi:nodetypes="cscssccccccccccc" />
      <path
         sodipodi:nodetypes="cc"
         id="path17211"
         d="M 654.17936,691.50761 C 659.12622,690.90621 683.5787,709.77389 683.67175,717.21574"
         style="fill:none;fill-rule:evenodd;stroke:black;stroke-width:1px;stroke-linecap:butt;stroke-linejoin:miter;stroke-opacity:1" />
      <path
         sodipodi:nodetypes="ccsccc"
         id="path18098"
         d="M 668.24619,699.67174 L 655,715 C 649.42671,710.78211 638.10645,718.83097 648.23097,728.42555 C 656.3467,736.11649 666.04154,727.69061 661,720 L 674.24619,704.67174 L 668.24619,699.67174 z "
         style="fill:white;fill-opacity:1;fill-rule:evenodd;stroke:black;stroke-width:1px;stroke-linecap:butt;stroke-linejoin:miter;stroke-opacity:1" />
    </g>
    <g
       id="g19872"
       transform="matrix(4.220257,0,0,4.220257,-2638.957,-2414.869)">
      <path
         sodipodi:nodetypes="cscssccccccccccc"
         id="path16322"
         d="M 704.08838,693.34186 C 706.84156,697.41054 711.19021,702.30536 710.14152,706.48782 C 707.28505,717.88018 712.16598,717.52682 717.62276,713.25286 C 717.62276,713.25286 729.07384,704.19755 733.30023,700.11018 C 738.72815,694.86081 735.29884,692.60126 727.78072,693.72091 C 723.60338,694.34303 718.80302,689.22948 714.65814,683.91162 L 651.82324,611.87438 L 637.8349,596.86048 L 651.82324,611.87438 C 651.14956,605.94446 650.56946,600.05052 653.76043,595.607 C 645.65128,595.53161 635.93534,593.68483 628.17676,587.7721 C 631.47096,596.23604 634.40372,604.79855 631.13952,615.05114 C 636.44889,613.29144 642.90732,614.94584 646.48138,616.86048 L 635.55586,599.12562 L 646.48138,616.86048 L 704.08838,693.34186 z "
         style="fill:white;fill-opacity:1;fill-rule:evenodd;stroke:black;stroke-width:1px;stroke-linecap:butt;stroke-linejoin:miter;stroke-opacity:1" />
      <path
         style="fill:white;fill-opacity:1;fill-rule:evenodd;stroke:black;stroke-width:1px;stroke-linecap:butt;stroke-linejoin:miter;stroke-opacity:1"
         d="M 727.11084,705.56356 L 736.74619,717.03479 C 742.31948,712.8169 753.63974,720.86576 743.51522,730.46034 C 735.39949,738.15128 726.11497,729.97159 731.15651,722.28098 L 721.11084,710.56356 L 727.11084,705.56356 z "
         id="path18985"
         sodipodi:nodetypes="ccsccc" />
    </g>
    <path
       sodipodi:type="star"
       style="opacity:1;fill:white;fill-opacity:1;fill-rule:nonzero;stroke:black;stroke-width:3;stroke-miterlimit:4;stroke-dasharray:none;stroke-opacity:1"
       id="path19881"
       sodipodi:sides="6"
       sodipodi:cx="275.73663"
       sodipodi:cy="122.24058"
       sodipodi:r1="149.52428"
       sodipodi:r2="79.173233"
       sodipodi:arg1="0.53439548"
       sodipodi:arg2="1.0579943"
       inkscape:flatsided="false"
       inkscape:rounded="0"
       inkscape:randomized="0"
       d="M 404.41374,198.39642 L 314.58067,191.23001 L 274.1223,271.75614 L 235.41205,190.37521 L 145.44519,195.6003 L 196.56801,121.38578 L 147.05953,46.084739 L 236.8926,53.251144 L 277.35097,-27.274984 L 316.06122,54.105941 L 406.02808,48.880855 L 354.90525,123.09537 L 404.41374,198.39642 z "
       transform="matrix(0.948468,0,0,0.948468,38.47259,33.8253)" />
  </g>
  <g
     inkscape:groupmode="layer"
     id="layer3"
     inkscape:label="Reflet final"
     style="display:inline"
     sodipodi:insensitive="true">
    <path
       style="fill:url(#radialGradient3236);fill-opacity:1"
       d="M 1.5,1.5 L 1.5,460.3679 C 1.5,626.67854 135.81454,761.5 301.49993,761.5 C 467.1854,761.5 601.5,626.67854 601.5,460.3679 L 601.5,1.5 L 1.5,1.5 z "
       id="path2346" />
  </g>
  <g
     inkscape:groupmode="layer"
     id="layer4"
     inkscape:label="Contour final"
     style="display:inline"
     sodipodi:insensitive="true">
    <path
       style="fill:none;fill-opacity:1;stroke:#000000;stroke-width:3;stroke-miterlimit:4;stroke-dasharray:none;stroke-opacity:1"
       d="M 1.5,1.5 L 1.5,460.36794 C 1.5,626.67854 135.81454,761.5 301.49993,761.5 C 467.1854,761.5 601.5,626.67854 601.5,460.36794 L 601.5,1.5 L 1.5,1.5 z "
       id="path3239" />
  </g>
</svg>

<?xml version="1.0" encoding="UTF-8"?>
<svg version="1.0" viewBox="0 0 603 763" xmlns="http://www.w3.org/2000/svg" xmlns:cc="http://web.resource.org/cc/" xmlns:dc="http://purl.org/dc/elements/1.1/" xmlns:rdf="http://www.w3.org/1999/02/22-rdf-syntax-ns#" xmlns:xlink="http://www.w3.org/1999/xlink">
<metadata>
<rdf:RDF>
<cc:Work rdf:about="">
<dc:format>image/svg+xml</dc:format>
<dc:type rdf:resource="http://purl.org/dc/dcmitype/StillImage"/>
<dc:date>07-AUG-2006</dc:date>
<dc:creator>
<cc:Agent>
<dc:title>Jérôme BLUM (wagner51)</dc:title>
</cc:Agent>
</dc:creator>
<cc:license rdf:resource="http://creativecommons.org/licenses/GPL/2.0/"/>
<dc:coverage/>
<dc:description>Gabarit pour le Projet:Blasons de WIkipédia</dc:description>
<dc:subject>
<rdf:Bag>
<rdf:li>blason suisse modèle gabarit projet blasons</rdf:li>
</rdf:Bag>
</dc:subject>
<dc:language>fr</dc:language>
<dc:title>Gabrit d'un blason suisse</dc:title>
</cc:Work>
<cc:License rdf:about="http://creativecommons.org/licenses/GPL/2.0/">
<cc:permits rdf:resource="http://web.resource.org/cc/Reproduction"/>
<cc:permits rdf:resource="http://web.resource.org/cc/Distribution"/>
<cc:requires rdf:resource="http://web.resource.org/cc/Notice"/>
<cc:permits rdf:resource="http://web.resource.org/cc/DerivativeWorks"/>
<cc:requires rdf:resource="http://web.resource.org/cc/ShareAlike"/>
<cc:requires rdf:resource="http://web.resource.org/cc/SourceCode"/>
</cc:License>
</rdf:RDF>
</metadata>
<defs>
<radialGradient id="a" cx="858.04" cy="579.93" r="300" gradientTransform="matrix(1.215 1.5316e-24 1.4647e-23 1.2667 -839.19 -490.49)" gradientUnits="userSpaceOnUse">
<stop stop-color="#fff" stop-opacity=".31373" offset="0"/>
<stop stop-color="#fff" stop-opacity=".25098" offset=".19"/>
<stop stop-color="#6b6b6b" stop-opacity=".12549" offset=".6"/>
<stop stop-opacity=".12549" offset="1"/>
</radialGradient>
</defs>
<desc>Coat of Arms of Canton of Freiburg (Fribourg)</desc>
<path d="m1.5 1.5v458.87c0 166.31 134.31 301.13 300 301.13 165.69 0 300-134.82 300-301.13v-458.87h-600z" fill="#e20909"/>
<g stroke="#000">
<g transform="matrix(4.2203 0 0 4.2203 -2639 -2414.9)" stroke-width="1px">
<path d="m687.06 692.52c-2.7532 4.0687-4.8929 9.0621-3.5091 13.146 5.1619 15.235-5.717 16.1-11.995 10.458 0 0-11.074-9.4858-15.677-13.143-7.5875-6.0268-4.7691-14.1 6.0119-11.806 4.1309 0.87909 10.209-2.2757 14.354-7.5936l62.014-69.493 16.04-17.23-16.04 17.23c0.67368-5.9299 2.3206-11.249 1.5916-17.334 8.1092-0.07539 17.004-2.6608 24.763-8.5735-3.2942 8.4639-6.7194 16.124-3.4552 26.376-6.3762-0.69286-13.081 1.6181-16.655 3.5327l12.074-18.966-12.074 18.966-57.443 74.43z" fill="#fff" fill-rule="evenodd"/>
<path d="m654.18 691.51c4.9469-0.6014 29.399 18.266 29.492 25.708" fill="none"/>
<path d="m668.25 699.67-13.246 15.328c-5.5733-4.2179-16.894 3.831-6.769 13.426 8.1157 7.6909 17.811-0.73494 12.769-8.4256l13.246-15.328-6-5z" fill="#fff" fill-rule="evenodd"/>
<path d="m704.09 693.34c2.7532 4.0687 7.1018 8.9635 6.0531 13.146-2.8565 11.392 2.0245 11.039 7.4812 6.765 0 0 11.451-9.0553 15.677-13.143 5.4279-5.2494 1.9986-7.5089-5.5195-6.3893-4.1773 0.62212-8.9777-4.4914-13.123-9.8093l-62.835-72.037-13.988-15.014 13.988 15.014c-0.67368-5.9299-1.2538-11.824 1.9372-16.267-8.1092-0.07539-17.825-1.9222-25.584-7.8349 3.2942 8.4639 6.227 17.026 2.9628 27.279 5.3094-1.7597 11.768-0.1053 15.342 1.8093l-10.926-17.735 10.926 17.735 57.607 76.481z" fill="#fff" fill-rule="evenodd"/>
<path d="m727.11 705.56 9.6354 11.471c5.5733-4.2179 16.894 3.831 6.769 13.426-8.1157 7.6909-17.4-0.48875-12.359-8.1794l-10.046-11.717 6-5z" fill="#fff" fill-rule="evenodd"/>
</g>
<path transform="matrix(.94847 0 0 .94847 38.473 33.825)" d="m404.41 198.4-89.833-7.1664-40.458 80.526-38.71-81.381-89.967 5.2251 51.123-74.215-49.508-75.301 89.833 7.1664 40.458-80.526 38.71 81.381 89.967-5.2251-51.123 74.215 49.508 75.301z" fill="#fff" stroke-width="3"/>
</g>
<g>
<path d="m1.5 1.5v458.87c0 166.31 134.31 301.13 300 301.13 165.69 0 300-134.82 300-301.13v-458.87h-600z" fill="url(#a)"/>
<path d="m1.5 1.5v458.87c0 166.31 134.31 301.13 300 301.13 165.69 0 300-134.82 300-301.13v-458.87h-600z" fill="none" stroke="#000" stroke-width="3"/>
</g>
</svg>
